X: 1
T: I Want A Girl
I: I Want A GirlS-IGsquare
%C: S-I
M: C|
Z: Transcribed to abc by Mary Lou Knack
R: square
K: G
"G"D4 B,CD2| "C"G4 EFGA| "G"B2G2 "D7"B2A2| "G"G6z2| \
"C"E4 GFG2| "G"D3E DCB,D| "A7"E2A2 A2B2| "D"A6z2|
"G"B2B2 BAGB| "B7"A2A2 A4| "Em"G2G2 GFEG| "D7"F2F2 F2E2| \
"G"D4 B,CD2| "C"G4 EFGA| "G"B2G2 "D7"B2A2| "G"G6z2|]
